svg/contact/comment_2_line.svg

<?xml version="1.0" encoding="UTF-8"?>
<svg width="24px" height="24px" viewBox="0 0 24 24" version="1.1" xmlns="http://www.w3.org/2000/svg" xmlns:xlink="http://www.w3.org/1999/xlink">
    <title>comment_2_line</title>
    <g id="Icon" stroke="none" stroke-width="1" fill="none" fill-rule="evenodd">
        <g id="Contact" transform="translate(-192.000000, -96.000000)">
            <g id="comment_2_line" transform="translate(192.000000, 96.000000)">
                <path d="M24,0 L24,24 L0,24 L0,0 L24,0 Z M12.5935,23.2578 L12.5819,23.2595 L12.5109,23.295 L12.4919,23.2987 L12.4767,23.295 L12.4057,23.2595 C12.3958,23.2564 12.387,23.259 12.3821,23.2649 L12.378,23.2758 L12.3609,23.7031 L12.3659,23.7235 L12.3769,23.7357 L12.4805,23.8097 L12.4953,23.8136 L12.5071,23.8097 L12.6107,23.7357 L12.6233,23.7197 L12.6267,23.7031 L12.6096,23.2758 C12.6076,23.2657 12.601,23.2593 12.5935,23.2578 Z M12.8584,23.1453 L12.8445,23.1473 L12.6598,23.2397 L12.6499,23.2499 L12.6472,23.2611 L12.6651,23.6906 L12.6699,23.7034 L12.6784,23.7105 L12.8793,23.8032 C12.8914,23.8069 12.9022,23.803 12.9078,23.7952 L12.9118,23.7812 L12.8777,23.1665 C12.8753,23.1546 12.8674,23.147 12.8584,23.1453 Z M12.143,23.1473 C12.1332,23.1424 12.1222,23.1453 12.1156,23.1526 L12.1099,23.1665 L12.0758,23.7812 C12.0751,23.7927 12.0828,23.8019 12.0926,23.8046 L12.1083,23.8032 L12.3092,23.7105 L12.3186,23.7024 L12.3225,23.6906 L12.3404,23.2611 L12.3372,23.2485 L12.3278,23.2397 L12.143,23.1473 Z" id="MingCute" fill-rule="nonzero"></path>
                <path d="M4,12 C4,8.13401 7.13401,5 11,5 C13.9361,5 16.4524,6.80802 17.4915,9.37522 C17.6988,9.88715 18.2818,10.1342 18.7937,9.92694 C19.3056,9.71971 19.5526,9.13672 19.3454,8.62478 C18.011,5.32832 14.7786,3 11,3 C6.02944,3 2,7.02944 2,12 C2,13.683 2.46288,15.2606 3.26858,16.6095 L2.48939,19.2587 C2.26419,20.0244 2.97559,20.7358 3.74127,20.5106 L6.39052,19.7314 C7.43393,20.3547 8.6147,20.7731 9.87626,20.9304 C10.4243,20.9988 10.924,20.6099 10.9923,20.0618 C11.0607,19.5138 10.6718,19.0141 10.1237,18.9458 C9.07385,18.8149 8.0965,18.4515 7.24387,17.9081 C6.90689,17.6933 6.4814,17.62 6.07296,17.7401 L4.92112,18.0789 L5.25989,16.927 C5.38002,16.5186 5.30666,16.0931 5.09191,15.7561 C4.40064,14.6714 4,13.384 4,12 Z M20,16.5 C20,14.567 18.433,13 16.5,13 C14.567,13 13,14.567 13,16.5 C13,18.433 14.567,20 16.5,20 C17.1907,20 17.8319,19.8009 18.3729,19.4574 C18.6347,19.2911 18.9594,19.2209 19.2822,19.2822 C19.2209,18.9594 19.2911,18.6347 19.4574,18.3729 C19.8009,17.8319 20,17.1907 20,16.5 Z M16.5,11 C19.5376,11 22,13.4624 22,16.5 C22,17.4586 21.754,18.3622 21.3213,19.1484 L21.7068,20.459 C21.9312,21.2222 21.2222,21.9312 20.459,21.7068 L19.1484,21.3213 C18.3622,21.754 17.4586,22 16.5,22 C13.4624,22 11,19.5376 11,16.5 C11,13.4624 13.4624,11 16.5,11 Z" id="形状" fill="#09244B"></path>
            </g>
        </g>
    </g>
</svg>

<svg xmlns="http://www.w3.org/2000/svg" width="24" height="24"><g fill="none" fill-rule="evenodd"><path d="M24 0v24H0V0h24ZM12.594 23.258l-.012.002-.071.035-.02.004-.014-.004-.071-.036c-.01-.003-.019 0-.024.006l-.004.01-.017.428.005.02.01.013.104.074.015.004.012-.004.104-.074.012-.016.004-.017-.017-.427c-.002-.01-.009-.017-.016-.018Zm.264-.113-.014.002-.184.093-.01.01-.003.011.018.43.005.012.008.008.201.092c.012.004.023 0 .029-.008l.004-.014-.034-.614c-.003-.012-.01-.02-.02-.022Zm-.715.002a.023.023 0 0 0-.027.006l-.006.014-.034.614c0 .012.007.02.017.024l.015-.002.201-.093.01-.008.003-.011.018-.43-.003-.012-.01-.01-.184-.092Z"/><path fill="#09244B" d="M4 12a7 7 0 0 1 13.491-2.625 1 1 0 0 0 1.854-.75A9.003 9.003 0 1 0 3.27 16.61l-.78 2.649a1.008 1.008 0 0 0 1.252 1.252l2.65-.78a8.948 8.948 0 0 0 3.485 1.2 1 1 0 1 0 .248-1.985 6.95 6.95 0 0 1-2.88-1.038 1.429 1.429 0 0 0-1.171-.168l-1.152.339.339-1.152c.12-.408.047-.834-.168-1.17A6.962 6.962 0 0 1 4 12Zm16 4.5a3.5 3.5 0 1 0-1.627 2.957 1.26 1.26 0 0 1 .91-.175 1.26 1.26 0 0 1 .174-.91A3.48 3.48 0 0 0 20 16.5ZM16.5 11a5.5 5.5 0 0 1 4.821 8.148l.386 1.311a1.005 1.005 0 0 1-1.248 1.248l-1.31-.386A5.5 5.5 0 1 1 16.5 11Z"/></g></svg>
